src/assets/Remove.svg

<svg fill="none" height="20" viewBox="0 0 20 20" width="20" xmlns="http://www.w3.org/2000/svg"><path clip-rule="evenodd" d="m4.2931 4.29334c1.50029-1.50029 3.53512-2.34314 5.65685-2.34314 2.12175 0 4.15655.84285 5.65685 2.34314s2.3432 3.53512 2.3432 5.65686c0 2.1217-.8429 4.1566-2.3432 5.6569-1.5003 1.5002-3.5351 2.3431-5.65685 2.3431-2.12173 0-4.15656-.8429-5.65685-2.3431-1.50029-1.5003-2.34315-3.5352-2.34315-5.6569 0-2.12174.84286-4.15657 2.34315-5.65686zm5.65685-.84314c-1.72391 0-3.37721.68482-4.59619 1.9038-1.21899 1.21899-1.90381 2.87229-1.90381 4.5962 0 1.7239.68482 3.3772 1.90381 4.5962 1.21898 1.219 2.87228 1.9038 4.59619 1.9038 1.72395 0 3.37725-.6848 4.59615-1.9038 1.219-1.219 1.9039-2.8723 1.9039-4.5962 0-1.72391-.6849-3.37721-1.9039-4.5962-1.2189-1.21898-2.8722-1.9038-4.59615-1.9038z" fill="#abb2bd" fill-rule="evenodd"/><path d="m6 10h8" stroke="#abb2bd" stroke-linecap="round" stroke-width="1.5"/></svg>

<svg width="20" height="20" viewBox="0 0 20 20" fill="none" xmlns="http://www.w3.org/2000/svg">
<path fill-rule="evenodd" clip-rule="evenodd" d="M4.2931 4.29334C5.79339 2.79305 7.82822 1.9502 9.94995 1.9502C12.0717 1.9502 14.1065 2.79305 15.6068 4.29334C17.1071 5.79363 17.95 7.82846 17.95 9.9502C17.95 12.0719 17.1071 14.1068 15.6068 15.6071C14.1065 17.1073 12.0717 17.9502 9.94995 17.9502C7.82822 17.9502 5.79339 17.1073 4.2931 15.6071C2.79281 14.1068 1.94995 12.0719 1.94995 9.9502C1.94995 7.82846 2.79281 5.79363 4.2931 4.29334ZM9.94995 3.4502C8.22604 3.4502 6.57274 4.13502 5.35376 5.354C4.13477 6.57299 3.44995 8.22629 3.44995 9.9502C3.44995 11.6741 4.13477 13.3274 5.35376 14.5464C6.57274 15.7654 8.22604 16.4502 9.94995 16.4502C11.6739 16.4502 13.3272 15.7654 14.5461 14.5464C15.7651 13.3274 16.45 11.6741 16.45 9.9502C16.45 8.22629 15.7651 6.57299 14.5461 5.354C13.3272 4.13502 11.6739 3.4502 9.94995 3.4502Z" fill="#ABB2BD"/>
<path d="M6 10H14" stroke="#ABB2BD" stroke-width="1.5" stroke-linecap="round"/>
</svg>
